img/load.svg

<svg width="84" height="73" viewBox="0 0 84 73" fill="none" xmlns="http://www.w3.org/2000/svg"><path d="M0 21C0 16.5817 3.58172 13 8 13H21.0161C24.6821 13 28.2368 14.2589 31.0857 16.566L39.2983 23.217C40.7228 24.3706 42.5001 25 44.3331 25H76C80.4183 25 84 28.5817 84 33V59C84 63.4183 80.4183 67 76 67H8C3.58172 67 0 63.4183 0 59V21Z" fill="#94BCF9"/><path d="M25 54.5H59C61.4853 54.5 63.5 52.4853 63.5 50V20.0975C63.5 18.8361 62.9706 17.6326 62.0408 16.7803L53.2071 8.68281C52.3773 7.92215 51.2927 7.5 50.1667 7.5H24.9959C22.508 7.5 20.5 9.51736 20.5 12V50C20.5 52.4853 22.5147 54.5 25 54.5Z" stroke="#272B35" stroke-width="3" stroke-linecap="round" stroke-linejoin="round"/><path fill-rule="evenodd" clip-rule="evenodd" d="M32.5 36C33.3284 36 34 36.6716 34 37.5V40.2678C34 41.2234 34.7749 41.998 35.7308 41.998H49.2692C50.2251 41.998 51 41.2234 51 40.2678V37.5C51 36.6716 51.6716 36 52.5 36C53.3284 36 54 36.6716 54 37.5V40.2678C54 42.8797 51.882 44.9971 49.2692 44.9971H35.7308C33.118 44.9971 31 42.8797 31 40.2678V37.5C31 36.6716 31.6716 36 32.5 36Z" fill="#121316"/><path fill-rule="evenodd" clip-rule="evenodd" d="M43.574 22.4354C42.9809 21.8549 42.0192 21.8549 41.426 22.4354L36.0972 27.6504C35.4951 28.2396 35.4951 29.2086 36.0972 29.7979C36.6812 30.3694 37.6148 30.3694 38.1988 29.7979L40.9811 27.075L40.9809 38.481C40.9809 39.3199 41.6609 40 42.4999 40C43.3388 40 44.0189 39.3199 44.0189 38.481L44.0189 27.075L46.8012 29.7979C47.3852 30.3694 48.3188 30.3694 48.9028 29.7979C49.5049 29.2086 49.5049 28.2396 48.9028 27.6504L43.574 22.4354Z" fill="#272B35"/><path fill-rule="evenodd" clip-rule="evenodd" d="M62 19H54C52.3431 19 51 17.6569 51 16V9H48V16C48 19.3137 50.6863 22 54 22H62V19Z" fill="#272B35"/></svg>

<?xml version="1.0" encoding="utf-8"?>
<!-- Generator: Adobe Illustrator 22.0.1, SVG Export Plug-In . SVG Version: 6.00 Build 0)  -->
<svg version="1.1" id="Слой_1" xmlns="http://www.w3.org/2000/svg" xmlns:xlink="http://www.w3.org/1999/xlink" x="0px" y="0px"
	 viewBox="0 0 84 73" style="enable-background:new 0 0 84 73;" xml:space="preserve">
<style type="text/css">
	.st0{fill:#94BCF9;}
	.st1{fill:none;stroke:#272B35;stroke-width:3;stroke-linecap:round;stroke-linejoin:round;}
	.st2{fill:#272B35;}
</style>
<path class="st0" d="M0,21c0-4.4,3.6-8,8-8h13c3.7,0,7.2,1.3,10.1,3.6l8.2,6.7c1.4,1.2,3.2,1.8,5,1.8H76c4.4,0,8,3.6,8,8v26
	c0,4.4-3.6,8-8,8H8c-4.4,0-8-3.6-8-8V21z"/>
<path class="st1" d="M25,54.5h34c2.5,0,4.5-2,4.5-4.5V20.1c0-1.3-0.5-2.5-1.5-3.3l-8.8-8.1c-0.8-0.8-1.9-1.2-3-1.2H25
	c-2.5,0-4.5,2-4.5,4.5v38C20.5,52.5,22.5,54.5,25,54.5z"/>
<path class="st2" d="M32.5,36c0.8,0,1.5,0.7,1.5,1.5v2.8c0,1,0.8,1.7,1.7,1.7h13.5c1,0,1.7-0.8,1.7-1.7v-2.8c0-0.8,0.7-1.5,1.5-1.5
	s1.5,0.7,1.5,1.5v2.8c0,2.6-2.1,4.7-4.7,4.7H35.7c-2.6,0-4.7-2.1-4.7-4.7v-2.8C31,36.7,31.7,36,32.5,36z"/>
<path class="st2" d="M43.6,22.4c-0.6-0.6-1.6-0.6-2.1,0l-5.3,5.2c-0.6,0.6-0.6,1.6,0,2.1c0.6,0.6,1.5,0.6,2.1,0l2.8-2.7l0,11.4
	c0,0.8,0.7,1.5,1.5,1.5c0.8,0,1.5-0.7,1.5-1.5V27.1l2.8,2.7c0.6,0.6,1.5,0.6,2.1,0c0.6-0.6,0.6-1.6,0-2.1L43.6,22.4z"/>
<path class="st2" d="M62,19h-8c-1.7,0-3-1.3-3-3V9h-3v7c0,3.3,2.7,6,6,6h8V19z"/>
</svg>
